X: 081
T: The Tickler
C: Bert Murray
R: reel
B: Bert Murray's "Bon Accord Collection" 1999 p.8
%
Z: 2011 John Chambers <jc:trillian.mit.edu>
M: 4/4
L: 1/8
K: G
(udc) |\
BGFG DGFG | G,B,DG Bd^cd | cA^GA EA^GA | FAd^c ed=cA |
BGFG DGFG | G,B,DG Bd^cd | cA^GA FAd^c | (ed/c/) (B/c/A) G2 ||
(uBc) |\
dgfg dBGB | dgfg dBGB | cA^GA EA^GA | FAc^c edB=c |
dgfg dBGB | dgfg dBGB | cA^GA FAc^c | (e/d/c) (B/c/A) G2 |]

%%sep 2 1 500

